svgs/1F9CA.svg

<svg xmlns="http://www.w3.org/2000/svg" xmlns:xlink="http://www.w3.org/1999/xlink" preserveAspectRatio="none" viewBox="0 0 72 72"><defs><g id="a"><path fill="#96D9F2" d="M6.5 23.5v22.55q.15 4.25 5.55 7.6L28.6 63.8q3.7 2.35 7.4 2.95v-36.2L8 16.95q-1.55 2-1.5 6.55z"/><path fill="#9EE4FF" d="M56.35 12.05L49.9 9.2q-8.75-3.95-13.75-3.95-5.3 0-14 3.95l-6.5 2.85Q9.4 14.95 8 16.95l28 13.6q16.85-4.4 28-13.6-1.35-2-7.65-4.9z"/><path fill="#82C3D8" d="M65.5 46.05V23.5q.1-4.55-1.5-6.55-11.15 9.2-28 13.6v36.2q3.7-.6 7.4-2.95l16.55-10.15q5.4-3.35 5.55-7.6z"/></g><path id="b" fill="none" stroke="#C6EFFF" stroke-linecap="round" stroke-linejoin="round" stroke-width="3" d="M36 66.75q3.7-.6 7.4-2.95l16.55-10.15q5.4-3.35 5.55-7.6V23.5q.1-4.55-1.5-6.55m-28 49.8q-3.7-.6-7.4-2.95L12.05 53.65q-5.4-3.35-5.55-7.6V23.5q-.05-4.55 1.5-6.55 1.4-2 7.65-4.9l6.5-2.85q8.7-3.95 14-3.95 5 0 13.75 3.95l6.45 2.85q6.3 2.9 7.65 4.9"/></defs><g><use xlink:href="#a"/><use xlink:href="#b"/></g></svg>

<svg xmlns="http://www.w3.org/2000/svg" version="1.1" xmlns:xlink="http://www.w3.org/1999/xlink" preserveAspectRatio="none" x="0px" y="0px" width="72px" height="72px" viewBox="0 0 72 72">
<defs>
<g id="Layer0_0_FILL">
<path fill="#96D9F2" stroke="none" d="
M 6.5 23.5
L 6.5 46.05
Q 6.65 50.3 12.05 53.65
L 28.6 63.8
Q 32.3 66.15 36 66.75
L 36 30.55 8 16.95
Q 6.45 18.95 6.5 23.5 Z"/>

<path fill="#9EE4FF" stroke="none" d="
M 56.35 12.05
L 49.9 9.2
Q 41.15 5.25 36.15 5.25 30.85 5.25 22.15 9.2
L 15.65 12.05
Q 9.4 14.95 8 16.95
L 36 30.55
Q 52.85 26.15 64 16.95 62.65 14.95 56.35 12.05 Z"/>

<path fill="#82C3D8" stroke="none" d="
M 65.5 46.05
L 65.5 23.5
Q 65.6 18.95 64 16.95 52.85 26.15 36 30.55
L 36 66.75
Q 39.7 66.15 43.4 63.8
L 59.95 53.65
Q 65.35 50.3 65.5 46.05 Z"/>
</g>

<path id="Layer0_0_1_STROKES" stroke="#C6EFFF" stroke-width="3" stroke-linejoin="round" stroke-linecap="round" fill="none" d="
M 36 66.75
Q 39.7 66.15 43.4 63.8
L 59.95 53.65
Q 65.35 50.3 65.5 46.05
L 65.5 23.5
Q 65.6 18.95 64 16.95
M 36 66.75
Q 32.3 66.15 28.6 63.8
L 12.05 53.65
Q 6.65 50.3 6.5 46.05
L 6.5 23.5
Q 6.45 18.95 8 16.95 9.4 14.95 15.65 12.05
L 22.15 9.2
Q 30.85 5.25 36.15 5.25 41.15 5.25 49.9 9.2
L 56.35 12.05
Q 62.65 14.95 64 16.95"/>
</defs>

<g id="Camada_1">
<g transform="matrix( 1, 0, 0, 1, 0,0) ">
<use xlink:href="#Layer0_0_FILL"/>

<use xlink:href="#Layer0_0_1_STROKES"/>
</g>
</g>
</svg>
